src/next/cmd/sc_fontworkshapetype.fontwork-inflate.svg

<svg height="128" viewBox="0 0 128 128" width="128" xmlns="http://www.w3.org/2000/svg" xmlns:xlink="http://www.w3.org/1999/xlink"><linearGradient id="a" gradientUnits="userSpaceOnUse" x1="64" x2="64.476852" y1="128" y2="-.504842"><stop offset="0" stop-color="#fff"/><stop offset=".46428573" stop-color="#fff"/><stop offset=".78125" stop-color="#f1f1f1"/><stop offset=".90625" stop-color="#eaeaea"/><stop offset="1" stop-color="#dfdfdf"/></linearGradient><linearGradient id="b" gradientUnits="userSpaceOnUse" x1=".076172" x2="127.92383" y1="64" y2="64"><stop offset="0" stop-color="#7c9fcf"/><stop offset=".5" stop-color="#7c9ece"/><stop offset="1" stop-color="#7b9dcf"/></linearGradient><path d="m54.683594 12.414062a7.9239305 7.9239305 0 0 0 -3.720703.929688l-46.6835941 24.835938a7.9239305 7.9239305 0 0 0 -4.20312503 6.99414v37.652344a7.9239305 7.9239305 0 0 0 4.20312503 6.99414l46.6835941 24.835938a7.9239305 7.9239305 0 0 0 3.720703.92969h18.632812a7.9239305 7.9239305 0 0 0 3.720703-.92969l46.683591-24.835938a7.9239305 7.9239305 0 0 0 4.20313-6.99414v-37.652344a7.9239305 7.9239305 0 0 0 -4.20313-6.99414l-46.683591-24.835938a7.9239305 7.9239305 0 0 0 -3.720703-.929688z" fill="url(#b)"/><path d="m54.684153 20.337506-46.6841507 24.836934v37.651123l46.6841507 24.836917h18.631688l46.684159-24.836917v-37.651123l-46.684159-24.836934z" fill="url(#a)"/></svg>

<?xml version="1.0" encoding="UTF-8" standalone="no"?>
<svg
   xmlns:dc="http://purl.org/dc/elements/1.1/"
   xmlns:cc="http://creativecommons.org/ns#"
   xmlns:rdf="http://www.w3.org/1999/02/22-rdf-syntax-ns#"
   xmlns:svg="http://www.w3.org/2000/svg"
   xmlns="http://www.w3.org/2000/svg"
   xmlns:sodipodi="http://sodipodi.sourceforge.net/DTD/sodipodi-0.dtd"
   xmlns:inkscape="http://www.inkscape.org/namespaces/inkscape"
   height="16"
   viewBox="0 0 16 16"
   width="16"
   version="1.1"
   id="svg24"
   sodipodi:docname="sc_fontworkshapetype.fontwork-inflate.svg"
   inkscape:version="0.92.3 (2405546, 2018-03-11)"
   inkscape:export-filename="/home/rizmut/Dokumen/Rizmut/Github/libreoffice-style-karasa-jaga/src/next/cmd/sc_fontworkshapetype.fontwork-inflate.png"
   inkscape:export-xdpi="96"
   inkscape:export-ydpi="96">
  <metadata
     id="metadata30">
    <rdf:RDF>
      <cc:Work
         rdf:about="">
        <dc:format>image/svg+xml</dc:format>
        <dc:type
           rdf:resource="http://purl.org/dc/dcmitype/StillImage" />
        <dc:title></dc:title>
      </cc:Work>
    </rdf:RDF>
  </metadata>
  <defs
     id="defs28" />
  <sodipodi:namedview
     pagecolor="#ffffff"
     bordercolor="#666666"
     borderopacity="1"
     objecttolerance="10"
     gridtolerance="10"
     guidetolerance="10"
     inkscape:pageopacity="0"
     inkscape:pageshadow="2"
     inkscape:window-width="1366"
     inkscape:window-height="714"
     id="namedview26"
     showgrid="true"
     inkscape:zoom="5.2149125"
     inkscape:cx="-14.086614"
     inkscape:cy="11.586832"
     inkscape:window-x="0"
     inkscape:window-y="28"
     inkscape:window-maximized="1"
     inkscape:current-layer="svg24">
    <inkscape:grid
       type="xygrid"
       id="grid840" />
  </sodipodi:namedview>
  <linearGradient
     id="a"
     gradientUnits="userSpaceOnUse"
     x1="64"
     x2="64.476852"
     y1="128"
     y2="-0.50484198">
    <stop
       offset="0"
       stop-color="#fff"
       id="stop2" />
    <stop
       offset=".46428573"
       stop-color="#fff"
       id="stop4" />
    <stop
       offset=".78125"
       stop-color="#f1f1f1"
       id="stop6" />
    <stop
       offset=".90625"
       stop-color="#eaeaea"
       id="stop8" />
    <stop
       offset="1"
       stop-color="#dfdfdf"
       id="stop10" />
  </linearGradient>
  <linearGradient
     id="b"
     gradientUnits="userSpaceOnUse"
     x1="0.076172002"
     x2="127.92383"
     y1="64"
     y2="64">
    <stop
       offset="0"
       stop-color="#7c9fcf"
       id="stop13" />
    <stop
       offset=".5"
       stop-color="#7c9ece"
       id="stop15" />
    <stop
       offset="1"
       stop-color="#7b9dcf"
       id="stop17" />
  </linearGradient>
  <g
     id="g844"
     transform="scale(0.125)">
    <path
       id="path20"
       d="M 54.683594,12.414062 A 7.9239305,7.9239305 0 0 0 50.962891,13.34375 L 4.2792969,38.179688 a 7.9239305,7.9239305 0 0 0 -4.20312503,6.99414 v 37.652344 a 7.9239305,7.9239305 0 0 0 4.20312503,6.99414 L 50.962891,114.65625 a 7.9239305,7.9239305 0 0 0 3.720703,0.92969 h 18.632812 a 7.9239305,7.9239305 0 0 0 3.720703,-0.92969 L 123.7207,89.820312 a 7.9239305,7.9239305 0 0 0 4.20313,-6.99414 V 45.173828 a 7.9239305,7.9239305 0 0 0 -4.20313,-6.99414 L 77.037109,13.34375 a 7.9239305,7.9239305 0 0 0 -3.720703,-0.929688 z"
       style="fill:url(#b)"
       inkscape:connector-curvature="0" />
    <path
       id="path22"
       d="M 54.684153,20.337506 8.0000023,45.17444 V 82.825563 L 54.684153,107.66248 H 73.315841 L 120,82.825563 V 45.17444 L 73.315841,20.337506 Z"
       style="fill:url(#a)"
       inkscape:connector-curvature="0" />
  </g>
</svg>
